images/pages/careers/corporate-culture.svg

<svg id="Layer_1" xmlns="http://www.w3.org/2000/svg" viewBox="0 0 15 15"><style>.st0{fill:#293152}</style><path class="st0" d="M10.5 4.5c.7 0 1.3.6 1.5 1.4-.7-.2-1-.8-1-.8l-.2-.4-.2.4c-.1.2-.3.4-.5.5v.5c.2-.1.5-.3.7-.5.2.3.6.6 1.2.7v.2h.1c.1 0 .1.1.1.2s-.1.1-.1.2H12v.2c-.3.7-.8 1.1-1.4 1.1-.5 0-.9-.3-1.2-.7-.2.1-.3.2-.4.3.4.5.9.8 1.5.8.5 0 1-.2 1.3-.6.1-.1.2-.2.2-.3 0-.1.1-.1.1-.2s.1-.2.1-.2c.1-.1.2-.1.3-.2 0-.1.1-.2.1-.3 0-.2 0-.3-.1-.4 0 0 0-.1-.1-.1V6c-.2-1.1-1-1.9-1.9-1.9-.3-.1-.5 0-.8.1.1.1.1.3.1.4.3-.1.5-.1.7-.1zM9.6 8.9c.2.1.3.3.5.4v-.6h-.5v.2zM2.3 6.8c0 .2.2.4.4.5V7.6c0 .1.1.1.1.2.1 0 .2.1.3.2.4.4.8.6 1.3.6.6 0 1.2-.3 1.6-.8-.2-.1-.3-.2-.4-.3-.3.4-.7.7-1.1.7-.6 0-1.1-.4-1.4-1.1v-.2H3c-.1 0-.1-.1-.2-.2 0-.1 0-.2.1-.2l.1-.1v-.1c.4 0 1.2-.1 1.8-.6 0-.2.1-.4.2-.5V5l-.2-.3-.2.4c-.3.7-1.2.8-1.7.8.1-.8.8-1.5 1.5-1.5.2 0 .4 0 .6.1 0-.1.1-.3.1-.4-.2 0-.4-.1-.6-.1-1 0-1.8.8-1.9 1.9v.3l-.1.1c-.2.1-.3.3-.2.5 0-.1 0 0 0 0zM4.9 9.3c.2-.1.3-.3.5-.4v-.2h-.5v.6z"/><path class="st0" d="M4.9 5.9v.2c.1.2.2.3.4.4.2.2.2.3.3.5.1 0 .1.1.2.2s.2.3.3.4l.2.2c.3.2.7.3 1.2.3.4 0 .8-.1 1.2-.4.1 0 .1-.1.2-.2 0-.1.1-.2.2-.3.1-.1.1-.2.2-.3.1-.1.1-.2.2-.4v-.1c.1-.1.2-.1.3-.3.1-.1.1-.2.1-.3v-.2c0-.1 0-.2-.1-.3l-.1-.1v-.3c0-.1 0-.2-.1-.3 0-.2-.1-.3-.1-.4 0-.1-.1-.2-.1-.2-.4-.7-1.1-1.2-1.9-1.2-.8 0-1.5.5-1.9 1.3 0 .1-.1.2-.1.2-.2.1-.2.3-.2.4 0 .2-.1.4-.1.6-.1.1-.2.3-.3.4v.2zm.9-1.3c0-.1.1-.2.1-.3.3-.6.9-1.1 1.5-1.1.7 0 1.2.4 1.5 1.1 0 .1.1.2.1.3 0 .1 0 .2.1.2 0 .1-.1.1-.1 0-.1 0-.2-.1-.2-.1-.5-.3-.7-.7-.7-.7l-.3-.5-.2.5c-.2.6-.8.8-1.3.9H6c-.1.1-.2.1-.3.1 0-.1.1-.2.1-.4zm-.3 1.1l.1-.1v-.1h.6c.1 0 .2 0 .3-.1.5-.1 1-.3 1.3-.8.2.2.4.4.7.5.1 0 .2.1.2.1.1.1.3.2.4.2h.1v.2l.1.1c.1 0 .1.1.1.2s0 .1-.1.2h-.1v.1c0 .1 0 .1-.1.1-.1.2-.2.4-.3.5-.1.1-.2.3-.3.4-.1 0-.1.1-.2.1-.3.2-.6.3-.8.3-.3 0-.6-.1-.9-.3-.1 0-.1-.1-.2-.2l-.3-.3c-.1-.2-.2-.3-.3-.5v-.2h-.2c-.1-.1-.2-.1-.2-.2s.1-.2.1-.2z"/><path class="st0" d="M15 12V0H0v15h15v-3zM13.7 1.3V12h-.3v-.3c0-.6-.2-1.2-.6-1.7l-.3-.3c-.3-.3-.7-.5-1.1-.7v-.3H11v.7h.2c.4.1.7.3 1 .5l.3.3c.3.4.5.9.5 1.5v.3h-2.1v-.3c0-.7-.2-1.4-.7-1.9-.2-.2-.2-.3-.3-.3-.1-.1-.2-.3-.4-.4-.1 0-.2-.1-.3-.1-.2-.2-.4-.3-.7-.4v-.4H8V9h.2c.2 0 .4.1.5.2.1 0 .2.1.3.1.1.1.3.2.4.3l.2.2c.4.5.7 1.1.7 1.8v.4H4.7v-.3c0-.7.2-1.3.7-1.8l.2-.2c.1-.1.3-.2.4-.3.1-.1.2-.1.3-.1.2-.1.3-.1.5-.2L7 9v-.8h-.5v.4c-.3.1-.5.2-.7.4-.1 0-.2.1-.3.1-.2.1-.3.3-.4.4-.1 0-.1.1-.2.2-.4.5-.7 1.2-.7 1.9v.4H2.1v-.3c0-.6.2-1.1.5-1.5l.3-.3c.3-.2.6-.4 1-.5h.2v-.7h-.5v.4c-.4.1-.8.4-1.1.7-.1 0-.2.1-.3.2-.4.5-.6 1-.6 1.7v.3h-.3V1.3h12.4z"/></svg>

<?xml version="1.0" encoding="utf-8"?>
<!-- Generator: Adobe Illustrator 19.1.0, SVG Export Plug-In . SVG Version: 6.00 Build 0)  -->
<svg version="1.1" id="Layer_1" xmlns="http://www.w3.org/2000/svg" xmlns:xlink="http://www.w3.org/1999/xlink" x="0" y="0"
	 viewBox="0 0 15 15" style="enable-background:new 0 0 15 15;" xml:space="preserve">
<style type="text/css">
	.st0{fill:#293152;}
</style>
<g>
	<path class="st0" d="M10.5,4.5c0.7,0,1.3,0.6,1.5,1.4C11.3,5.7,11,5.1,11,5.1l-0.2-0.4l-0.2,0.4c-0.1,0.2-0.3,0.4-0.5,0.5
		c0,0.1,0,0.3,0,0.4c0,0,0,0.1,0,0.1c0.2-0.1,0.5-0.3,0.7-0.5C11,5.9,11.4,6.2,12,6.3c0,0,0,0,0,0l0,0.2l0,0l0.1,0
		c0.1,0,0.1,0.1,0.1,0.2c0,0.1-0.1,0.1-0.1,0.2l-0.1,0l0,0.1c0,0,0,0,0,0.1c-0.3,0.7-0.8,1.1-1.4,1.1c-0.5,0-0.9-0.3-1.2-0.7
		C9.2,7.6,9.1,7.7,9,7.8c0.4,0.5,0.9,0.8,1.5,0.8c0.5,0,1-0.2,1.3-0.6C11.9,7.9,12,7.8,12,7.7c0-0.1,0.1-0.1,0.1-0.2
		c0-0.1,0.1-0.2,0.1-0.2c0.1-0.1,0.2-0.1,0.3-0.2c0-0.1,0.1-0.2,0.1-0.3c0-0.2,0-0.3-0.1-0.4c0,0,0-0.1-0.1-0.1c0-0.1,0-0.2,0-0.3
		c-0.2-1.1-1-1.9-1.9-1.9C10.2,4,10,4.1,9.7,4.2c0.1,0.1,0.1,0.3,0.1,0.4C10.1,4.5,10.3,4.5,10.5,4.5z"/>
	<path class="st0" d="M9.6,8.9C9.8,9,9.9,9.2,10.1,9.3V8.7H9.6V8.9z"/>
	<path class="st0" d="M2.3,6.8c0,0.2,0.2,0.4,0.4,0.5c0,0,0,0,0,0.1c0,0,0,0.1,0,0.1c0,0,0,0.1,0,0.1c0,0.1,0.1,0.1,0.1,0.2
		C2.9,7.8,3,7.9,3.1,8c0.4,0.4,0.8,0.6,1.3,0.6C5,8.6,5.6,8.3,6,7.8C5.8,7.7,5.7,7.6,5.6,7.5C5.3,7.9,4.9,8.2,4.5,8.2
		c-0.6,0-1.1-0.4-1.4-1.1c0,0,0-0.1,0-0.1l0-0.1l-0.1,0c-0.1,0-0.1-0.1-0.2-0.2c0-0.1,0-0.2,0.1-0.2l0.1-0.1l0,0l0-0.1
		c0.4,0,1.2-0.1,1.8-0.6c0-0.2,0.1-0.4,0.2-0.5c0-0.1,0-0.2,0-0.2L4.8,4.7L4.6,5.1C4.3,5.8,3.4,5.9,2.9,5.9c0.1-0.8,0.8-1.5,1.5-1.5
		c0.2,0,0.4,0,0.6,0.1c0-0.1,0.1-0.3,0.1-0.4C4.9,4.1,4.7,4,4.5,4c-1,0-1.8,0.8-1.9,1.9c0,0.1,0,0.2,0,0.3c0,0-0.1,0.1-0.1,0.1
		C2.3,6.4,2.2,6.6,2.3,6.8C2.3,6.7,2.3,6.8,2.3,6.8z"/>
	<path class="st0" d="M4.9,9.3C5.1,9.2,5.2,9,5.4,8.9V8.7H4.9V9.3z"/>
	<path class="st0" d="M4.9,5.9c0,0.1,0,0.1,0,0.2c0.1,0.2,0.2,0.3,0.4,0.4C5.5,6.7,5.5,6.8,5.6,7C5.7,7,5.7,7.1,5.8,7.2
		C5.9,7.3,6,7.5,6.1,7.6c0.1,0.1,0.1,0.1,0.2,0.2C6.6,8,7,8.1,7.5,8.1c0.4,0,0.8-0.1,1.2-0.4c0.1,0,0.1-0.1,0.2-0.2
		C8.9,7.4,9,7.3,9.1,7.2C9.2,7.1,9.2,7,9.3,6.9c0.1-0.1,0.1-0.2,0.2-0.4c0,0,0-0.1,0-0.1c0.1-0.1,0.2-0.1,0.3-0.3
		c0.1-0.1,0.1-0.2,0.1-0.3c0-0.1,0-0.1,0-0.2c0-0.1,0-0.2-0.1-0.3c0,0-0.1-0.1-0.1-0.1c0-0.1,0-0.2,0-0.3c0-0.1,0-0.2-0.1-0.3
		c0-0.2-0.1-0.3-0.1-0.4c0-0.1-0.1-0.2-0.1-0.2C9,3.3,8.3,2.8,7.5,2.8c-0.8,0-1.5,0.5-1.9,1.3c0,0.1-0.1,0.2-0.1,0.2
		C5.3,4.4,5.3,4.6,5.3,4.7c0,0.2-0.1,0.4-0.1,0.6c0,0,0,0,0,0C5.1,5.4,5,5.6,4.9,5.7C4.9,5.8,4.9,5.9,4.9,5.9z M5.8,4.6
		c0-0.1,0.1-0.2,0.1-0.3c0.3-0.6,0.9-1.1,1.5-1.1c0.7,0,1.2,0.4,1.5,1.1c0,0.1,0.1,0.2,0.1,0.3c0,0.1,0,0.2,0.1,0.2
		C9.1,4.9,9,4.9,9,4.8c-0.1,0-0.2-0.1-0.2-0.1C8.3,4.4,8.1,4,8.1,4L7.8,3.5L7.6,4C7.4,4.6,6.8,4.8,6.3,4.9c-0.1,0-0.2,0-0.3,0
		C5.9,5,5.8,5,5.7,5C5.7,4.9,5.8,4.8,5.8,4.6z M5.5,5.7L5.5,5.7l0.1-0.1l0-0.1c0,0,0.1,0,0.1,0c0.1,0,0.3,0,0.5,0
		c0.1,0,0.2,0,0.3-0.1c0.5-0.1,1-0.3,1.3-0.8C8,4.8,8.2,5,8.5,5.1c0.1,0,0.2,0.1,0.2,0.1C8.8,5.3,9,5.4,9.1,5.4c0,0,0.1,0,0.1,0
		c0,0,0,0,0,0l0,0.2l0.1,0.1c0.1,0,0.1,0.1,0.1,0.2c0,0,0,0,0,0C9.4,6,9.4,6,9.3,6.1l-0.1,0l0,0.1c0,0.1,0,0.1-0.1,0.1
		C9,6.5,8.9,6.7,8.8,6.8C8.7,6.9,8.6,7.1,8.5,7.2C8.4,7.2,8.4,7.3,8.3,7.3C8,7.5,7.7,7.6,7.5,7.6c-0.3,0-0.6-0.1-0.9-0.3
		c-0.1,0-0.1-0.1-0.2-0.2C6.3,7,6.2,6.9,6.1,6.8C6,6.6,5.9,6.5,5.8,6.3c0,0,0,0,0,0L5.8,6.1l-0.2,0C5.5,6,5.4,6,5.4,5.9
		C5.4,5.8,5.5,5.7,5.5,5.7z"/>
	<path class="st0" d="M15,12V0H0v15l0,0l0,0h15V12L15,12z M13.7,1.3V12h-0.3v-0.3c0-0.6-0.2-1.2-0.6-1.7c-0.1-0.1-0.2-0.2-0.3-0.3
		c-0.3-0.3-0.7-0.5-1.1-0.7V8.7h-0.4v0.7l0.2,0c0.4,0.1,0.7,0.3,1,0.5c0.1,0.1,0.2,0.2,0.3,0.3c0.3,0.4,0.5,0.9,0.5,1.5V12h-2.1
		v-0.3c0-0.7-0.2-1.4-0.7-1.9C10,9.6,10,9.5,9.9,9.5C9.8,9.4,9.7,9.2,9.5,9.1C9.4,9.1,9.3,9,9.2,9C9,8.8,8.8,8.7,8.5,8.6V8.2H8V9
		l0.2,0c0.2,0,0.4,0.1,0.5,0.2c0.1,0,0.2,0.1,0.3,0.1c0.1,0.1,0.3,0.2,0.4,0.3c0.1,0.1,0.1,0.1,0.2,0.2c0.4,0.5,0.7,1.1,0.7,1.8V12
		H4.7v-0.3c0-0.7,0.2-1.3,0.7-1.8c0.1-0.1,0.1-0.1,0.2-0.2C5.7,9.6,5.9,9.5,6,9.4c0.1-0.1,0.2-0.1,0.3-0.1c0.2-0.1,0.3-0.1,0.5-0.2
		L7,9V8.2H6.5v0.4C6.2,8.7,6,8.8,5.8,9C5.7,9,5.6,9.1,5.5,9.1C5.3,9.2,5.2,9.4,5.1,9.5C5,9.5,5,9.6,4.9,9.7
		c-0.4,0.5-0.7,1.2-0.7,1.9V12H2.1v-0.3c0-0.6,0.2-1.1,0.5-1.5c0.1-0.1,0.2-0.2,0.3-0.3c0.3-0.2,0.6-0.4,1-0.5l0.2,0V8.7H3.6v0.4
		C3.2,9.2,2.8,9.5,2.5,9.8C2.4,9.8,2.3,9.9,2.2,10c-0.4,0.5-0.6,1-0.6,1.7V12H1.3V1.3H13.7z"/>
</g>
</svg>
